!!!!SEGMENT: pl-cz--ii-87--004-001_hepner--msza-st-kirie.krn
!!!cenid: 18xx:1188
!!!COM: Hepner
!!!COM-rismID: pe30021002
!!!CDT: ~1800-~1899
!!!CNT:
!!!OPR: Msza St.
!!!OTL: Kirie
!!!OMV: 001
!!!PDT: 1888
!!!AGN: Sacred; Mass
!!!SMS-siglum: PL-CZ
!!!SMS-shelfmark: II-87
!!!SMS-shelfwork: 004-001 M
!!!SMS-variant:
!!!SMS-altvar:
!!!NIFC-rismSourceID: 300033227
!!!NIFC-islandoraID: pl-cz:33881
!!!URL-pdf-islandora: https://repozytorium.nifc.pl/islandora/object/pl-cz%3A33881/datastream/PDF/view
!!!URL-scan:
!!!ONB-nifc: UWAGA: części Mszy: Kirie, Gloria, Graduale, Credo, Offertorium, Sanctus, Benedictus, Agnus, Communio, Benedicio
!!!AIN: 1 organ
!!!key: a
**kern	**kern	**text	**text
*part1	*part1	*part1	*part1
*staff2	*staff1	*staff1	*staff1
*>[A,B,B1,B,B2,C]	*>[A,B,B1,B,B2,C]	*>[A,B,B1,B,B2,C]	*>[A,B,B1,B,B2,C]
*>A	*>A	*>A	*>A
*I"Organo	*I"Organo	*	*
*Iorgan	*Iorgan	*	*
*ICklav	*ICklav	*	*
*clefF4	*clefG2	*	*
*k[]	*k[]	*	*
*a:	*a:	*	*
*M4/4	*M4/4	*	*
*met(c)	*met(c)	*	*
=1	=1	=1	=1
4A 4AA\	1a 1e 1c	.	.
4AA/	.	.	.
4C/	.	.	.
4E\	.	.	.
=2	=2	=2	=2
4A\	4a 4e 4c/	.	.
4r	4c/	.	.
2r	4f 4d/	.	.
.	4g#X 4d 4B/	.	.
=3!|:	=3!|:	=3!|:	=3!|:
*>B	*>B	*>B	*>B
2A 2AA\	2a 2e 2c/	Bo-	O-
2E\	2g 2e 2c/	-ze	-czy
=4	=4	=4	=4
4A 4AA\	4a 4e 4c/	lud	na
4E\	4b 4g 4e/	twuj	twuj
!LO:SIC:v:s=4A\	!	!	!
4F\	4cc 4a 4e/	czcj	oł-
4G\	4dd 4b 4gn/	prze-	-taż
=5	=5	=5	=5
*	*^	*	*
2c 2C\	2ee/	2cc 2g\	-jen-	swię-
2G#X\	4.ee/	2cc 2e\	-ty	-ty
.	8dd/	.	wszech-	ser-
=6	=6	=6	=6	=6
2A\	2cc/	2a 2e\	-moc-	-ca
2Gn\	2cc#X 2a 2e/	2ryy	-nosc	do
=7	=7	=7	=7	=7
2F\	2dd\	2a 2d\	two-	Cie-
2F\	2dd#X/	2a\	-ja	-bie
.	8qqcc/L	.	.	.
.	8qqb/J	.	.	.
=8	=8	=8	=8	=8
*>B1	*>B1	*>B1	*>B1	*>B1
8E/L	2ee/	2b 2g#X\	głosi	.
8EE/	.	.	.	.
8GG#X/	.	.	.	.
8BB/J	.	.	.	.
8E/L	8r	2ryy	.	.
8D/	8bL 8g#X 8e 8d/	.	.	.
8C/	8a 8e 8c/	.	.	.
8BB/J	8g#J 8e 8d/	.	.	.
!!LO:LB:g=original
=9:|!	=9:|!	=9:|!	=9:|!	=9:|!
!LO:TX:t=2.	!	!	!	!
*>B2	*>B2	*>B2	*>B2	*>B2
8E/L	2.ee/	2.g#X 2.e\	wznosi	.
8EE/	.	.	.	.
8GG#X/	.	.	.	.
8BB/J	.	.	.	.
!LO:N:vis=4	!	!	!	!
2E\	.	.	.	.
.	8b 8g#X/L	4ryy	licz-	.
.	8b 8g#/J	.	-nie	.
*	*v	*v	*	*
=10	=10	=10	=10
*>C	*>C	*>C	*>C
4E 4EE/	4cc 4a\	na	.
4E 4EE/	4ee 4cc\	nas	.
4E 4EE/	4dd 4b\	cią-	.
4E 4EE/	4cc 4a\	-żon	.
=11	=11	=11	=11
!LO:SIC:v:s=8E/L	!	!	!
8G/L	(<8ccL 8a/	wi-	.
8EE/	8bJ 8g#X/)	.	.
8GG#X/	4b 4g#/	-ny	.
8BB/J	.	.	.
4E\	4r	.	.
4G#X\	(>8eeL 8b 8e\	lecz	.
.	8dd\J)	niech,	.
=12	=12	=12	=12
4A\	4cc 4a 4e/	żal,	.
4A\	4cc 4a 4e/	nas	.
4F#X\	4cc 4a 4d/	li-	.
4F#\	4cc 4a 4d/	-tosc	.
=13	=13	=13	=13
2G\	8ccL 8a 8d/	wzno-	.
.	8bJ 8g/	.	.
.	4b 4g 4d/	-si	.
2Fn\	4r	.	.
.	8bL 8g 8d/	przyj-	.
.	8bJ 8g 8d/	-mi	.
=14	=14	=14	=14
*	*^	*	*
4E\	4cc/	4g 4e 4c\	Oj-	.
4E\	4cc/	4g 4e 4c\	-cze	.
4E\	4b-X 4g 4e 4c/	2ryy	grzesz-	.
4E\	4b- 4g 4e 4c/	.	-ne	.
*	*v	*v	*	*
!!LO:LB:g=original
=15	=15	=15	=15
2F\	(<8b-XL 8g 8c/	sy-	.
.	8aJ 8f/)	.	.
.	4a 4f 4c/	-ny	.
4r	4r	.	.
8F\L	8a-XL 8d 8B/	nie	.
8F\J	8a-J 8d 8B/	ot-	.
=16	=16	=16	=16
4F\	4a-X 4d 4B/	-py-	.
4F\	4a- 4d 4B/	-chaj	.
4E\	4g#X 4B/	two-	.
4E\	4g# 4B/	-ich	.
=17	=17	=17	=17
*	*^	*	*
2A 2AA\	2an 2e/	2c\	dze-	.
2F\	2a/	2f 2c\	-ci	.
*	*v	*v	*	*
=18	=18	=18	=18
2F\	2a 2f 2d/	.	.
2E\	2b 2g#X 2e 2B/	.	.
=19	=19	=19	=19
2A 2AA\	2a 2e 2c/	.	.
2r	2r	.	.
==	==	==	==
*-	*-	*-	*-
!!!system-decoration: (s1,s2)
!!!RDF**kern: > = above
!!!RDF**kern: < = below
!!!ENC: Tomasz Grochalski
!!!END: 2020-11-07
!!!ENC: Andrzej Kubiczek
!!!END: 2021-11-16
